!!!OTL: EIN LEBEN WIE IM PARADIES
!!!ARE: Europa, Mitteleuropa, Deutschland
!!!SCT: B0331
!!!YEM: Copyright 1995, estate of Helmut Schaffrath.
**kern
*ICvox
*Ivox
*M2/4
*k[]
*C:
{8g
=1
8cc
8g
8e
8f
=2
8.g
16a
8g}
{8e
=3
8f
8g
8a
8b
=4
4cc
8r}
{8ee
=5
8dd
8g
8a
8b
=6
16dd
16cc
16b
16a
8b}
{8g
=7
8cc
8a
8dd
8dd
=8
4g
8r}
{8dd
=9
8dd
8b
8b
8cc
=10
8.dd
16ee
8dd}
{8g
=11
8cc
8g
8e
8c
=12
4g
8r}
{8g
=13
8cc
8ee
8dd
8f
=14
8e
8f
8g}
{8a
=15
8a
8f
8d
8b
=16
4cc
8r}
==
!!!AGN: Trink - Lied
!!!ONB: ESAC (Essen Associative Code) Database: BOEHME
!!!AMT: simple duple
!!!AIN: vox
!!!EED: Helmut Schaffrath
!!!EEV: 1.0
*-
